X: 1778
T: Orley Benson's 4th Figure, 1st Set
B: australian traditional tunes wiki
M:2/4
L:1/8
R: Set Tune
Q: 1/4=100
K:C
V:1 
|:"C"C>D CE|G3E|"F"FA/B/ cA|"C"G3E|"F"FA/F/ DF|"C"EE CE/C/|1"D7"DG, B,C|D4:|2"G7"DG, B,D|"C"C2cB||
||"F" A3G|Ac BA|"C"G2E2-|EG AG/E/|"G7"G2D2-|"G7"DG BA|"C"G2E2-|E2"C7"cB|
"F" A3G|Ac BA|"C"G2E2-|EG AG/E/|"G7"G2D2-|"G7"D2 DF|ED "C"C2-|C2z2||
% abcbook-tune_id 6342d53a180fabc0029f6fd7


% abcbook-boost 0
% abcbook-tablature 
% abcbook-transpose 
% abcbook-lastupdated 1665324383327
% abcbook-soundfonts 
% abcbook-repeats 1
% NFF Book 2014

